X:1
T: White Wings
C:
R:Jig
Q:180
K:D
M:6/8
L:1/16
|:a2|a6 f4e2|d2c2d2 e2d2B2|A2d2e2 f2g2f2|f2e2^d2 e6|
a6 f4e2|d2c2d2 e2d2B2|A2d2e2 f2g2f2|e2B2c2 d4:|
|:e2|e6 a4c2|B2A2B2 c2d2e2|f2^g2a2 e2d2c2|c2B2^A2 B6|
c6 e4c2|d2c2d2 a2^g2f2|e2f2e2 e2d2c2|B2F2^G2 A4:|
